hoodie_driver/public/Instagram.svg

<svg  viewBox="0 0 25 25" fill="#E0CC1B" xmlns="http://www.w3.org/2000/svg">
<path fill-rule="evenodd" clip-rule="evenodd" d="M16.9541 3.08154H8.9541C6.19268 3.08154 3.9541 5.32012 3.9541 8.08154V16.0815C3.9541 18.8429 6.19268 21.0815 8.9541 21.0815H16.9541C19.7155 21.0815 21.9541 18.8429 21.9541 16.0815V8.08154C21.9541 5.32012 19.7155 3.08154 16.9541 3.08154ZM20.2041 16.0815C20.1986 17.8741 18.7467 19.326 16.9541 19.3315H8.9541C7.16145 19.326 5.70959 17.8741 5.7041 16.0815V8.08154C5.70959 6.28889 7.16145 4.83703 8.9541 4.83154H16.9541C18.7467 4.83703 20.1986 6.28889 20.2041 8.08154V16.0815ZM17.7041 8.33154C18.2564 8.33154 18.7041 7.88382 18.7041 7.33154C18.7041 6.77926 18.2564 6.33154 17.7041 6.33154C17.1518 6.33154 16.7041 6.77926 16.7041 7.33154C16.7041 7.88382 17.1518 8.33154 17.7041 8.33154ZM12.9541 7.58154C10.4688 7.58154 8.4541 9.59626 8.4541 12.0815C8.4541 14.5668 10.4688 16.5815 12.9541 16.5815C15.4394 16.5815 17.4541 14.5668 17.4541 12.0815C17.4568 10.8872 16.9835 9.74111 16.139 8.89662C15.2945 8.05213 14.1484 7.57888 12.9541 7.58154ZM10.2041 12.0815C10.2041 13.6003 11.4353 14.8315 12.9541 14.8315C14.4729 14.8315 15.7041 13.6003 15.7041 12.0815C15.7041 10.5627 14.4729 9.33154 12.9541 9.33154C11.4353 9.33154 10.2041 10.5627 10.2041 12.0815Z" fill="#E0CC1B"/>
</svg>

<svg xmlns="http://www.w3.org/2000/svg" viewBox="0 0 25 25" fill="#E0CC1B" xmlns:v="https://vecta.io/nano"><path fill-rule="evenodd" d="M16.954 3.082h-8a5 5 0 0 0-5 5v8a5 5 0 0 0 5 5h8a5 5 0 0 0 5-5v-8a5 5 0 0 0-5-5zm3.25 13a3.26 3.26 0 0 1-3.25 3.25h-8a3.26 3.26 0 0 1-3.25-3.25v-8a3.26 3.26 0 0 1 3.25-3.25h8a3.26 3.26 0 0 1 3.25 3.25v8zm-2.5-7.75a1 1 0 1 0 0-2 1 1 0 1 0 0 2zm-4.75-.75a4.5 4.5 0 0 0 0 9 4.5 4.5 0 0 0 4.5-4.5 4.49 4.49 0 0 0-4.5-4.5zm-2.75 4.5a2.75 2.75 0 1 0 5.5 0 2.75 2.75 0 1 0-5.5 0z"/></svg>
